wp-content/themes/slurve/assets/images/comcast.svg

<svg viewBox="0 0 1001 354"><g fill="none"><path d="m500.044 17.759c3.688-6.022 9.807-12.323 16.396-14.988 11.341-5.16 26.542-2.941 35.795 5.224 8.954 8.112 13.496 19.23 11.353 31.66 2.196-.405 4.413-1.811 6.738-2.611 13.899-3.923 28.599.331 37.511 12.248 6.694 8.507 8.443 21.724 4.425 32.001-1.994 5.169-5.395 9.817-9.817 13.783l.446.448c12.931.628 25.639 10.67 29.561 22.982 4.253 12.419.512 25.69-8.57 34.773-7.42 7.334-16.961 9.872-27.567 9.658h-192.55c-15.81.341-28.026-6.663-34.603-20.722-5.16-12.068-2.612-27.503 7.024-36.702 6.076-6.354 13.688-8.956 21.896-10.266-9.295-8.624-13.773-20.424-11.161-33.078 1.866-10.254 10.607-20.637 20.648-24.219 8.847-3.518 20.83-2.9 28.932 1.875l.288-.352c-2.441-13.954 3.742-26.543 15.317-34.261 10.32-6.981 26.821-6.801 36.926.62 4.542 2.781 8.283 7.557 11.012 11.927" fill="#fff"/><g fill="#888"><path d="m554.558 22.972c4.137 8.347 1.707 19.284-2.611 26.778l-33.408 75.163-.289.352-12.076-76.25c-.969-7.322 6.854-10.446 11.459-13.964-.234-1.076-1.418-1.023-2.163-1.524l-11.288-.118-.343-.341c.064-9.466 5.16-18.207 13.794-22.801 9.02-5.212 21.725-3.795 29.549 2.889 3.177 2.834 5.853 6.127 7.376 9.816"/><path d="m493.008 20.36c2.73 5.053 4.308 10.789 3.348 17.141l-13.623 87.305c.074.106-.053.224-.161.276l-3.528-7.024-34.144-76.25c-3.177-9.818-.234-20.083 6.918-27.12 7.206-7.312 19.06-9.295 28.484-5.329 4.989 2.154 9.754 6.12 12.706 11.001"/><path d="m603.978 57.115c4.594 7.834 3.561 19.689-1.547 26.959-3.164 5.106-8.389 7.654-12.813 11.001l-70.748 48.565h-.162l.79-2.323 37.502-84.649c5.618-9.978 16.342-15.031 27.684-13.507 7.771 1.419 15.542 6.471 19.294 13.954"/><path d="m443.259 56.668 39.026 86.963h-.628l-78.68-54.227c-8.007-6.747-11.289-16.853-8.571-27.065 2.036-7.654 8.389-14.806 15.947-17.643 12.375-4.53 26.317.288 32.906 11.972"/><path d="m624.509 118.505c3.922 8.283 2.377 19.625-3.23 26.67-5.563 6.749-13.005 10.437-21.736 10.202l-83.893.054 70.279-48.896c6.867-4.424 17.303-5.225 24.797-1.643 5.787 2.271 11.235 7.942 13.783 13.613"/><path d="m376.08 118.505c-3.911 8.283-2.377 19.625 3.241 26.67 5.564 6.749 12.983 10.437 21.725 10.202l83.893.054-70.28-48.896c-6.865-4.424-17.3-5.225-24.784-1.643-5.79 2.271-11.236 7.942-13.795 13.613"/><path d="m225.435 205.65c-40.763 0-73.893 33.152-73.893 73.916 0 40.753 33.13 73.925 73.893 73.925 40.764 0 73.916-33.172 73.916-73.925 0-40.763-33.152-73.916-73.916-73.916m0 133.28c-32.736 0-59.375-26.637-59.375-59.363 0-32.717 26.639-59.355 59.375-59.355 32.737 0 59.376 26.639 59.376 59.355 0 32.726-26.639 59.363-59.376 59.363"/><path d="m862.724 280.504c-3.965-2.08-28.088-14.498-31.553-16.299-12.653-6.471-17.141-12.185-17.141-21.864 0-13.452 11.045-22.14 28.173-22.14 10.054 0 19.774 4.424 25.478 7.632 1.035.565 2.261.885 3.539.885 3.987 0 7.26-3.272 7.26-7.259 0-2.686-1.473-5.043-3.635-6.301-7.184-4.009-19.434-9.498-32.642-9.498-25.167 0-42.724 15.072-42.724 36.681 0 19.391 12.749 28.537 25.222 34.912 3.495 1.78 27.896 14.358 31.552 16.287 9.637 5.042 14.967 12.611 14.967 21.321 0 11.672-9.891 24.08-28.194 24.08-17.803 0-31.628-11.939-35.444-15.617l-1.142-1.088-10.755 9.807 1.257 1.258c4.775 4.735 22.237 20.19 46.084 20.19 26.735 0 42.714-19.646 42.714-38.63 0-14.177-8.379-26.705-23.016-34.357"/><path d="m73.895 220.211c15.872 0 30.785 6.184 41.978 17.365 2.665 2.654 7.675 2.654 10.297 0 1.386-1.354 2.121-3.176 2.121-5.127 0-1.93-.735-3.774-2.121-5.128l-.895-.917c-13.837-13.389-32.097-20.754-51.38-20.754-40.743 0-73.895 33.163-73.895 73.905 0 40.765 33.152 73.937 73.895 73.937 21.51 0 40.89-9.229 54.396-23.942l-10.287-10.297c-10.873 12.067-26.607 19.678-44.11 19.678-32.726 0-59.365-26.648-59.365-59.375.001-32.695 26.64-59.345 59.366-59.345"/><path d="m574.941 220.211c15.852 0 30.785 6.184 41.977 17.365 2.654 2.654 7.666 2.654 10.288 0 1.386-1.354 2.153-3.176 2.153-5.127 0-1.93-.768-3.774-2.153-5.128l-.885-.917c-13.868-13.389-32.107-20.754-51.38-20.754-40.752 0-73.916 33.162-73.916 73.904 0 40.765 33.164 73.937 73.916 73.937 21.5 0 40.88-9.229 54.407-23.942l-10.298-10.297c-10.873 12.067-26.629 19.678-44.109 19.678-32.737 0-59.387-26.648-59.387-59.375 0-32.694 26.65-59.344 59.387-59.344"/><path d="m449.741 205.65c-2.729 0-4.883 1.759-6.056 4.029-1.194 2.27-43.492 106.897-43.502 106.897 0 0-42.298-104.628-43.482-106.897-1.183-2.271-3.335-4.029-6.064-4.029-3.188 0-5.586 2.345-6.428 5.299-.842 2.973-24.709 134.653-24.709 134.653-.086.428-.128.876-.128 1.333 0 3.623 2.953 6.556 6.556 6.556 3.198 0 5.863-2.28 6.438-5.297l20.669-112.664s39.879 98.518 41.041 100.862c1.173 2.335 3.347 4.158 6.119 4.158 2.771 0 4.936-1.823 6.097-4.158 1.173-2.345 41.051-100.862 41.051-100.862l21.479 117.151h13.348s-25.147-138.76-25.989-141.732c-.855-2.954-3.254-5.299-6.44-5.299"/><path d="m712.527 205.66c-2.761-.01-4.902 1.791-6.107 4.136-1.195 2.335-54.738 134.582-54.738 134.582-.32.777-.502 1.642-.502 2.558 0 3.623 2.932 6.566 6.556 6.566 2.761 0 5.128-1.727 6.099-4.168l20.785-51.134h55.825l22.174 54.481h14.166s-56.987-140.551-58.159-142.886c-1.164-2.344-3.328-4.145-6.099-4.135zm-21.981 77.987 21.98-54.046 22.002 54.046z"/><path d="m992.966 206.438h-82.293c-4.009 0-7.26 3.263-7.26 7.281 0 3.997 3.251 7.259 7.26 7.259h34.494v131.692h13.326v-131.691h34.473c4.009 0 7.292-3.262 7.292-7.259 0-4.019-3.283-7.282-7.292-7.282"/></g></g></svg>

<svg viewBox="0 0 1001 354" className="logo-comcast">
          <g stroke="none" strokeWidth="1" fill="none" fillRule="evenodd">
            <g fillRule="nonzero">
              <path
        d="M500.044,17.759 C503.732,11.737 509.851,5.436 516.44,2.771 C527.781,-2.389 542.982,-0.17 552.235,7.995 C561.189,16.107 565.731,27.225 563.588,39.655 C565.784,39.25 568.001,37.844 570.326,37.044 C584.225,33.121 598.925,37.375 607.837,49.292 C614.531,57.799 616.28,71.016 612.262,81.293 C610.268,86.462 606.867,91.11 602.445,95.076 L602.891,95.524 C615.822,96.152 628.53,106.194 632.452,118.506 C636.705,130.925 632.964,144.196 623.882,153.279 C616.462,160.613 606.921,163.151 596.315,162.937 L403.765,162.937 C387.955,163.278 375.739,156.274 369.162,142.215 C364.002,130.147 366.55,114.712 376.186,105.513 C382.262,99.159 389.874,96.557 398.082,95.247 C388.787,86.623 384.309,74.823 386.921,62.169 C388.787,51.915 397.528,41.532 407.569,37.95 C416.416,34.432 428.399,35.05 436.501,39.825 L436.789,39.473 C434.348,25.519 440.531,12.93 452.106,5.212 C462.426,-1.769 478.927,-1.589 489.032,5.832 C493.574,8.613 497.315,13.389 500.044,17.759"
        fill="#FFFFFF"
      />
              <path
        d="M554.558,22.972 C558.695,31.319 556.265,42.256 551.947,49.75 L518.539,124.913 L518.25,125.265 L506.174,49.015 C505.205,41.693 513.028,38.569 517.633,35.051 C517.399,33.975 516.215,34.028 515.47,33.527 L504.182,33.409 L503.839,33.068 C503.903,23.602 508.999,14.861 517.633,10.267 C526.653,5.055 539.358,6.472 547.182,13.156 C550.359,15.99 553.035,19.283 554.558,22.972"
        fill="#888"
      />
              <path
        d="M493.008,20.36 C495.738,25.413 497.316,31.149 496.356,37.501 L482.733,124.806 C482.807,124.912 482.68,125.03 482.572,125.082 L479.044,118.058 L444.9,41.808 C441.723,31.99 444.666,21.725 451.818,14.688 C459.024,7.376 470.878,5.393 480.302,9.359 C485.291,11.513 490.056,15.479 493.008,20.36"
        fill="#888"
      />
              <path
        d="M603.978,57.115 C608.572,64.949 607.539,76.804 602.431,84.074 C599.267,89.18 594.042,91.728 589.618,95.075 L518.87,143.64 L518.708,143.64 L519.498,141.317 L557,56.668 C562.618,46.69 573.342,41.637 584.684,43.161 C592.455,44.58 600.226,49.632 603.978,57.115"
        fill="#888"
      />
              <path
        d="M443.259,56.668 L482.285,143.631 L481.657,143.631 L402.977,89.404 C394.97,82.657 391.688,72.551 394.406,62.339 C396.442,54.685 402.795,47.533 410.353,44.696 C422.728,40.166 436.67,44.984 443.259,56.668"
        fill="#888"
      />
              <path
        d="M624.509,118.505 C628.431,126.788 626.886,138.13 621.279,145.175 C615.716,151.924 608.274,155.612 599.543,155.377 L515.65,155.431 L585.929,106.535 C592.796,102.111 603.232,101.31 610.726,104.892 C616.513,107.163 621.961,112.834 624.509,118.505"
        fill="#888"
      />
              <path
        d="M376.08,118.505 C372.169,126.788 373.703,138.13 379.321,145.175 C384.885,151.924 392.304,155.612 401.046,155.377 L484.939,155.431 L414.659,106.535 C407.794,102.111 397.359,101.31 389.875,104.892 C384.085,107.163 378.639,112.834 376.08,118.505"
        fill="#888"
      />
              <path
        d="M225.435,205.65 C184.672,205.65 151.542,238.802 151.542,279.566 C151.542,320.319 184.672,353.491 225.435,353.491 C266.199,353.491 299.351,320.319 299.351,279.566 C299.351,238.803 266.199,205.65 225.435,205.65 M225.435,338.93 C192.699,338.93 166.06,312.293 166.06,279.567 C166.06,246.85 192.699,220.212 225.435,220.212 C258.172,220.212 284.811,246.851 284.811,279.567 C284.811,312.293 258.172,338.93 225.435,338.93"
        fill="#888"
      />
              <path
        d="M862.724,280.504 C858.759,278.424 834.636,266.006 831.171,264.205 C818.518,257.734 814.03,252.02 814.03,242.341 C814.03,228.889 825.075,220.201 842.203,220.201 C852.257,220.201 861.977,224.625 867.681,227.833 C868.716,228.398 869.942,228.718 871.22,228.718 C875.207,228.718 878.48,225.446 878.48,221.459 C878.48,218.773 877.007,216.416 874.845,215.158 C867.661,211.149 855.411,205.66 842.203,205.66 C817.036,205.66 799.479,220.732 799.479,242.341 C799.479,261.732 812.228,270.878 824.701,277.253 C828.196,279.033 852.597,291.611 856.253,293.54 C865.89,298.582 871.22,306.151 871.22,314.861 C871.22,326.533 861.329,338.941 843.026,338.941 C825.223,338.941 811.398,327.002 807.582,323.324 L806.44,322.236 L795.685,332.043 L796.942,333.301 C801.717,338.036 819.179,353.491 843.026,353.491 C869.761,353.491 885.74,333.845 885.74,314.861 C885.74,300.684 877.361,288.156 862.724,280.504"
        fill="#888"
      />
              <path
        d="M73.895,220.211 C89.767,220.211 104.68,226.395 115.873,237.576 C118.538,240.23 123.548,240.23 126.17,237.576 C127.556,236.222 128.291,234.4 128.291,232.449 C128.291,230.519 127.556,228.675 126.17,227.321 L125.275,226.404 C111.438,213.015 93.178,205.65 73.895,205.65 C33.152,205.65 0,238.813 0,279.555 C0,320.32 33.152,353.492 73.895,353.492 C95.405,353.492 114.785,344.263 128.291,329.55 L118.004,319.253 C107.131,331.32 91.397,338.931 73.894,338.931 C41.168,338.931 14.529,312.283 14.529,279.556 C14.53,246.861 41.169,220.211 73.895,220.211"
        fill="#888"
      />
              <path
        d="M574.941,220.211 C590.793,220.211 605.726,226.395 616.918,237.576 C619.572,240.23 624.584,240.23 627.206,237.576 C628.592,236.222 629.359,234.4 629.359,232.449 C629.359,230.519 628.591,228.675 627.206,227.321 L626.321,226.404 C612.453,213.015 594.214,205.65 574.941,205.65 C534.189,205.65 501.025,238.812 501.025,279.554 C501.025,320.319 534.189,353.491 574.941,353.491 C596.441,353.491 615.821,344.262 629.348,329.549 L619.05,319.252 C608.177,331.319 592.421,338.93 574.941,338.93 C542.204,338.93 515.554,312.282 515.554,279.555 C515.554,246.861 542.204,220.211 574.941,220.211"
        fill="#888"
      />
              <path
        d="M449.741,205.65 C447.012,205.65 444.858,207.409 443.685,209.679 C442.491,211.949 400.193,316.576 400.183,316.576 C400.183,316.576 357.885,211.948 356.701,209.679 C355.518,207.408 353.366,205.65 350.637,205.65 C347.449,205.65 345.051,207.995 344.209,210.949 C343.367,213.922 319.5,345.602 319.5,345.602 C319.414,346.03 319.372,346.478 319.372,346.935 C319.372,350.558 322.325,353.491 325.928,353.491 C329.126,353.491 331.791,351.211 332.366,348.194 L353.035,235.53 C353.035,235.53 392.914,334.048 394.076,336.392 C395.249,338.727 397.423,340.55 400.195,340.55 C402.966,340.55 405.131,338.727 406.292,336.392 C407.465,334.047 447.343,235.53 447.343,235.53 L468.822,352.681 L482.17,352.681 C482.17,352.681 457.023,213.921 456.181,210.949 C455.326,207.995 452.927,205.65 449.741,205.65"
        fill="#888"
      />
              <path
        d="M712.527,205.66 C709.766,205.65 707.625,207.451 706.42,209.796 C705.225,212.131 651.682,344.378 651.682,344.378 C651.362,345.155 651.18,346.02 651.18,346.936 C651.18,350.559 654.112,353.502 657.736,353.502 C660.497,353.502 662.864,351.775 663.835,349.334 L684.62,298.2 L740.445,298.2 L762.619,352.681 L776.785,352.681 C776.785,352.681 719.798,212.13 718.626,209.795 C717.462,207.451 715.298,205.65 712.527,205.66 L712.527,205.66 Z M690.546,283.647 L712.526,229.601 L734.528,283.647 L690.546,283.647 Z"
        fill="#888"
      />
              <path
        d="M992.966,206.438 L910.673,206.438 C906.664,206.438 903.413,209.701 903.413,213.719 C903.413,217.716 906.664,220.978 910.673,220.978 L945.167,220.978 L945.167,352.67 L958.493,352.67 L958.493,220.979 L992.966,220.979 C996.975,220.979 1000.258,217.717 1000.258,213.72 C1000.258,209.701 996.975,206.438 992.966,206.438"
        fill="#888"
      />
            </g>
          </g>
        </svg>
